icons/macchiato/folder_turbo.svg

<svg xmlns="http://www.w3.org/2000/svg" width="16" height="16" viewBox="0 0 16 16">
	<g fill="none">
		<path stroke="#cad3f5" stroke-linecap="round" stroke-linejoin="round" d="M4.5 4.5H12C12.8284 4.5 13.5 5.17157 13.5 6V6.5M6 13.5H2C1.17157 13.5 0.5 12.8284 0.5 12V3.5C0.5 2.94772 0.947715 2.5 1.5 2.5H6.5C7.05228 2.5 7.5 2.94772 7.5 3.5V4.5" />
		<circle cx="11.5" cy="11.5" r="2" stroke="#cad3f5" />
		<path stroke="url(#a)" stroke-linecap="round" stroke-linejoin="round" d="M12.5111 7.62991C13.3662 7.85331 14.1231 8.35356 14.6639 9.05256C15.2046 9.75155 15.4986 10.6099 15.5 11.4937C15.5014 12.3774 15.2101 13.2367 14.6716 13.9374C14.1331 14.6381 13.3777 15.1408 12.5234 15.3669" />
		<path stroke="#ee99a0" stroke-linecap="round" stroke-linejoin="round" d="M10.5204 15.3782C9.992 15.2447 9.49645 15.0047 9.06416 14.6728M7.83342 13.0988C7.6135 12.5945 7.5 12.0502 7.5 11.5" />
		<defs>
			<radialGradient id="a" cx="0" cy="0" r="1" gradientTransform="matrix(0 8.03571 -8.85135 0 11.5 7.643)" gradientUnits="userSpaceOnUse">
				<stop offset=".7" stop-color="#8aadf4" />
				<stop offset="1" stop-color="#ee99a0" />
			</radialGradient>
		</defs>
	</g>
</svg>

<svg xmlns="http://www.w3.org/2000/svg" fill="none" viewBox="0 0 16 16" width="16" height="16">
	<path stroke="#cad3f5" stroke-linecap="round" stroke-linejoin="round" d="M4.5 4.5H12c.8 0 1.5.7 1.5 1.5v.5m-7.5 7H2c-.8 0-1.5-.7-1.5-1.5V3.5c0-.6.4-1 1-1h5c.6 0 1 .4 1 1v1" />
	<circle cx="11.5" cy="11.5" r="2" stroke="#cad3f5" />
	<path stroke="#8aadf4" stroke-linecap="round" stroke-linejoin="round" d="M12.5 7.6a4 4 0 0 1 3 3.7" />
	<path stroke="#c6a0f6" stroke-linecap="round" stroke-linejoin="round" d="M15.5 11.5a4 4 0 0 1-.7 2.3" />
	<path stroke="#ee99a0" stroke-linecap="round" stroke-linejoin="round" d="M10.5 15.4a4 4 0 0 1-1.4-.7m-1.3-1.6a4 4 0 0 1-.3-1.6m7.2 2.5a4 4 0 0 1-2.2 1.4" />
</svg>
